X:1
T:Title
%%score { ( 1 4 ) | ( 2 3 ) }
L:1/8
Q:1/4=105
M:6/4
K:E
V:1 treble nm="Grand Piano"
V:4 treble 
V:2 bass 
V:3 bass 
V:1
 G2 G2 G2 B3 B B2 | B2 F2 G2 A4 G2 | [DF]2 [=D^EG]2 [CFA]2 [FA]2 [Bd]3 [Ac] | [C=G^A]6 .[^GB]6 | %4
w: Fred.~H.~Byshe * * * * *||||
 [EG]2 [DEG]2 [CEG]2 [B,GB]2 [=DGB]2 [DGB]2 | [CE]2 [CEF]2 [CE]2 [^B,EA]4 [=B,EG]2 | %6
w: ||
 [B,^EG]2 [^A,CF]2 [Cc]2 [Dc]2 [DF]2 G2 | [G,E]12 |[M:12/8] B3 .G3 z6 | B3 .c3 B6 | ^B3 .B3 c3 z3 | %11
w: |||||
 B3[K:bass][K:treble] .B3 G6 | G3 .F3 A3 z3 | B3 .=d3 c6 | c3 [Ad]2 [Ae] [=Ge]3 [E^A]3 | %15
w: ||||
 [EB]3 [B,D]2 [B,D] [G,B,E]6 |] %16
w: |
V:2
 [E,B,E]2 [E,B,E]2 [E,B,E]2 [G,B,E]3 [G,B,E] [G,B,E]2 | %1
 [F,B,D]2 [A,B,D]2 [G,B,E]2 [F,B,D]4 [E,B,E]2 | B,,2 B,,2 B,,2 [B,,B,]2 [B,,B,]3 [B,,B,] | %3
 z6 .B,6 | E,2 G,2 B,2 E,2 E,2 E,2 | A,2 A,2 A,2 A,4 E,D, | %6
 C,2 F,2 [F,^A,]2 [B,,G,]2 [B,,G,]2 [B,D]2 | [E,,E,]12 | %8
[M:12/8] [E,G,E][E,G,][E,G,] [B,,B,][B,,B,][B,,A,] [E,G,][E,G,][E,G,] .[E,B,E]3 | %9
 [E,G,E][E,G,][E,G,] [B,,F,][B,,F,][B,,A,] [E,G,E][E,G,][E,G,] [E,G,]2 [E,G,E] | %10
 [G,,G,][G,,G,][G,,G,] [G,,G,][G,,G,][G,,G,] [C,G,][C,G,][C,G,] [C,G,]2 [C,E,] | %11
 [B,,F,]B,,B,, C,C,D, [E,B,E][E,B,][E,B,] [E,B,]2 [E,B,E] | %12
 [E,B,E][E,B,][E,B,] [E,A,B,][D,A,][E,G,B,] [F,B,D][F,B,][F,B,] [^E,B,C]2 [F,A,C] | %13
 [G,B,E][G,B,][G,B,] [E,B,][E,B,][E,B,] [A,E]A,A, A,2[K:treble] [A,E] | %14
 [A,EA]3[K:bass] [F,B,]2 [E,C] [C,^B,]3 [C,=G,]3 | [B,,G,]3 [B,,A,]2 [B,,A,] [E,,E,]6 |] %16
V:3
 x12 | x12 | x12 | .E,12 | x12 | x12 | x12 | x12 |[M:12/8] x12 | x12 | x12 | x12 | x12 | %13
 x11[K:treble] x | x3[K:bass] x9 | x12 |] %16
V:4
 x12 | x12 | x12 | x12 | x12 | x12 | x12 | x12 |[M:12/8] z EE DD[DF] EEE G2 A | %9
 z EE DD[DB] z EE E2 B | DDD FF[FG] EEE [Ec]2 [EG] | %11
 D[K:bass][F,D][F,D][K:treble] [B,G][B,G][B,FA] z EE E2 G | z EE z B,E z DD G2 F | %13
 z EE GG=d z EE E2 c | x12 | x12 |] %16

